X: 17241
T: Herb Reid's
R: polka
M: 2/4
K: Dmajor
|:A,D DE|FA Bc|dD DA|FE E2|
A,D DE|FA Bc|dB AF|[M:3/4]FE D2 D2:|
|:dc Bc|d2 DE|FA DE|FE E2|
dc Bc|d2 DE|FA FE|D2 D2:|

